!!!OTL@@DE: Das Steckenpferd
!!!COM: Hering, Carl Gottlieb
!!!ODT: 1807
!!!OMD: Munter
!!!LYR: Hahn, Carl
!!!LDT: 1807
!!!OCL: Erk, Ludwig
!!!GCO: Deutscher Liederschatz, Band 1
**kern	**kern	**kern
*staff3	*staff2	*staff1
*Ipiano	*Ipiano	*Ivox
=1-	=1-	=1-
*clefF4	*clefG2	*clefG2
*k[f#]	*k[f#]	*k[f#]
*G:	*G:	*G:
*M2/4	*M2/4	*M2/4
*MM108	*MM108	*MM108
8GG/	8B/ 8d/ 8g/	4g'/
8r	8r	.
8G\	8d/ 8g/ 8b/	4b'\
8r	8r	.
=2	=2	=2
4G\	4g\ 4b\ 4dd\	4dd'\
4r	4r	4r
=3	=3	=3
8BB'/L	8g'/ 8dd'/L	8dd\
8C'/J	8a'/ 8cc'/	8cc\
4D\	8g'/ 8b'/	8b\
.	8c'/ 8d'/ 8a'/J	8a/
=4	=4	=4
8GG/	8B/ 8d/ 8g/L	4g/
8r	8B/ 8d/ 8g/J	.
8G\	8r	4r
8r	8B/ 8d/ 8g/	.
=5	=5	=5
8DD/	8r	8a/
8r	8c/ 8d/ 8f#/	8a/
8D\	8r	8f#/
8r	8c/ 8d/ 8f#/	8d/
=6	=6	=6
8GG/	8r	8dd\
8r	8B/ 8d/ 8g/	8dd\
8G\	8r	8b\
8r	8B/ 8d/ 8g/	8g/
=7	=7	=7
8DD/	8r	8a/
8r	8c/ 8d/ 8f#/	8a/
8D\	8r	8f#/
8r	8c/ 8d/ 8f#/	8d/
=8	=8	=8
8GG/	8r	8dd'\
8r	8B/ 8d/ 8g/	8dd\
8G\	8r	8b\
8r	8B/ 8d/ 8g/	8g/
=9	=9	=9
8GG'/L	8G'/ 8g'/L	8g/
8AA'/	8A'/ 8a'/	8a/
8BB'/	8B'/ 8b'/	8b'\
8C'/J	8c'/ 8cc'/J	8cc\
=10	=10	=10
4D\	4d/ 4dd/	4dd\
4r	4r	4r
=11	=11	=11
8BB'/L	8d'/ 8g'/ 8dd'/L	8dd\
8C'/J	8e'/ 8a'/ 8cc'/	8cc\
8D'/L	8d'/ 8g'/ 8b'/	8b\
8DD'/J	8c'/ 8f#'/ 8a'/J	8a/
=12	=12	=12
*^	*	*
4GG/	2GG\	4B/ 4d/ 4g/	4g/
4G/	.	4r	4r
*v	*v	*	*
==	==	==
*-	*-	*-
!!!ENC: Craig Stuart Sapp
!!!END: 2004/05/26/
!!!EFL: 055/651
